X:1
T:When I was a Young Girl (Children's Game)
L:1/8
M:3/4
I:linebreak $
K:G
V:1 treble 
V:1
 D2 | (G3 A) Bc | d2 B2 d2 | c2 A2 c2 | B2 G2 D2 | (G3 A) Bc | d2 B2 dd | cc A2 cc |$ BB G2 BB | %9
w: When|I * was a|la- dy a|la- dy a|la- dy When|I * was a|la- dy and a|this a- way and a|this a- way and a|
 AA E2 F2 | G4 || %11
w: this a- way went|I|
